picto/bike-station-left.svg

<svg class="color-immutable" width="24" height="24" viewBox="0 0 24 24" fill="none" xmlns="http://www.w3.org/2000/svg"><path d="M0 22.5V1.5C0 0.675 0.675 0 1.5 0H22.5C23.325 0 24 0.675 24 1.5V22.5C24 23.325 23.325 24 22.5 24H1.5C0.675 24 0 23.325 0 22.5Z" fill="#2D327D"/><path d="M9.37501 5.43801L10.125 6.18801L10.875 5.43801L11.625 6.18801L12.563 5.25001L11.625 4.31201H7.33601C6.97801 3.51601 6.17901 2.96201 5.25001 2.96201C3.98701 2.96201 2.96301 3.98601 2.96301 5.24901C2.96301 6.51201 3.98701 7.53701 5.25001 7.53701C6.17901 7.53701 6.97801 6.98301 7.33601 6.18701H8.62501L9.37501 5.43801ZM4.12501 6.00001C3.71101 6.00001 3.37501 5.66401 3.37501 5.25001C3.37501 4.83601 3.71101 4.50001 4.12501 4.50001C4.53901 4.50001 4.87501 4.83601 4.87501 5.25001C4.87501 5.66401 4.53901 6.00001 4.12501 6.00001Z" fill="white"/><path d="M21 12.488V11.25L12 7.125L3 11.25V12.488L12 8.363L21 12.488Z" fill="white"/><path d="M13.737 12.946L15.321 13.5C15.355 13.513 15.393 13.519 15.429 13.519C15.539 13.519 15.64 13.465 15.701 13.374L16.057 12.846C16.086 12.802 16.101 12.751 16.101 12.7C16.101 12.555 15.984 12.437 15.839 12.437H13.823C13.677 12.437 13.56 12.555 13.56 12.7C13.56 12.81 13.632 12.91 13.737 12.946Z" fill="white"/><path d="M8.19303 12.961H10.491V12.436H8.19303C8.04803 12.436 7.93103 12.554 7.93103 12.699C7.93103 12.843 8.04803 12.961 8.19303 12.961Z" fill="white"/><path d="M8.19404 13.814H8.52204C8.66704 13.814 8.78504 13.696 8.78504 13.552C8.78504 13.407 8.66704 13.289 8.52204 13.289H8.19404C8.04904 13.289 7.93204 13.407 7.93204 13.552C7.93204 13.697 8.04904 13.814 8.19404 13.814Z" fill="white"/><path d="M16.659 14.568C16.148 14.568 15.643 14.69 15.189 14.924L14.559 13.913H9.44002L8.81002 14.924C8.35602 14.69 7.85202 14.568 7.34002 14.568C5.56502 14.568 4.12402 16.008 4.12402 17.784C4.12402 19.558 5.56402 21 7.34002 21C9.11502 21 10.555 19.559 10.555 17.784C10.555 16.765 10.074 15.808 9.25602 15.201L9.60902 14.634L11.329 17.191C11.21 17.341 11.146 17.526 11.146 17.718C11.146 18.188 11.529 18.571 11.999 18.571C12.331 18.571 12.632 18.378 12.773 18.079H13.458C13.609 19.734 14.998 21 16.659 21C18.434 21 19.875 19.559 19.875 17.784C19.875 16.009 18.434 14.568 16.659 14.568ZM10.031 17.784C10.031 19.269 8.82602 20.475 7.34002 20.475C5.85502 20.475 4.64902 19.27 4.64902 17.784C4.64902 16.298 5.85502 15.093 7.34002 15.093C7.75402 15.093 8.16102 15.188 8.53202 15.371L7.11702 17.645C7.09202 17.686 7.07802 17.734 7.07802 17.784C7.07802 17.929 7.19502 18.047 7.34002 18.047C7.43102 18.047 7.51502 18 7.56302 17.923L8.97802 15.65C9.64202 16.159 10.031 16.948 10.031 17.784ZM12.235 16.898C12.159 16.876 12.08 16.866 11.999 16.866C11.92 16.866 11.841 16.876 11.765 16.898L10.11 14.437H13.89L12.235 16.898ZM13.452 17.554H12.837C12.811 17.422 12.754 17.297 12.67 17.191L14.389 14.634L14.743 15.201C13.991 15.76 13.519 16.619 13.452 17.554ZM15.021 15.649L16.207 17.554H13.978C14.043 16.801 14.421 16.109 15.021 15.649ZM16.659 20.475C15.287 20.475 14.135 19.442 13.984 18.079H16.225C16.323 18.223 16.485 18.309 16.659 18.309C16.948 18.309 17.183 18.073 17.183 17.784C17.183 17.494 16.948 17.258 16.659 17.258C16.653 17.258 16.647 17.258 16.642 17.259L15.467 15.371C15.838 15.188 16.246 15.093 16.659 15.093C18.144 15.093 19.349 16.298 19.349 17.784C19.349 19.27 18.144 20.475 16.659 20.475Z" fill="white"/></svg>

<svg class="color-immutable" width="24" height="24" viewBox="0 0 24 24" fill="none" xmlns="http://www.w3.org/2000/svg"><g clip-path="url(#a)"><path d="M0 22.5v-21C0 .675.675 0 1.5 0h21c.825 0 1.5.675 1.5 1.5v21c0 .825-.675 1.5-1.5 1.5h-21C.675 24 0 23.325 0 22.5Z" fill="#2D327D"/><path d="m9.375 5.438.75.75.75-.75.75.75.938-.938-.938-.938H7.336a2.286 2.286 0 0 0-4.373.937 2.288 2.288 0 0 0 4.373.938h1.289l.75-.749ZM4.125 6a.75.75 0 1 1 0-1.5.75.75 0 0 1 0 1.5ZM21 12.488V11.25l-9-4.125-9 4.125v1.238l9-4.125 9 4.125Z" fill="#fff"/><path d="m13.737 12.946 1.584.554a.326.326 0 0 0 .38-.126l.356-.528a.262.262 0 0 0-.218-.409h-2.016a.263.263 0 0 0-.263.263c0 .11.072.21.177.246ZM8.193 12.961h2.298v-.525H8.193a.262.262 0 0 0 0 .525ZM8.194 13.814h.328a.263.263 0 0 0 0-.525h-.328a.262.262 0 0 0 0 .525ZM16.659 14.568c-.511 0-1.016.122-1.47.356l-.63-1.011H9.44l-.63 1.011A3.217 3.217 0 1 0 7.34 21a3.217 3.217 0 0 0 1.916-5.799l.353-.567 1.72 2.557a.854.854 0 1 0 1.444.888h.685a3.214 3.214 0 0 0 6.417-.295 3.217 3.217 0 0 0-3.216-3.216Zm-6.628 3.216a2.692 2.692 0 0 1-5.382 0 2.692 2.692 0 0 1 3.883-2.413l-1.415 2.274a.262.262 0 1 0 .446.278l1.415-2.273a2.689 2.689 0 0 1 1.053 2.134Zm2.204-.886a.846.846 0 0 0-.236-.032.842.842 0 0 0-.234.032l-1.655-2.461h3.78l-1.655 2.461Zm1.217.656h-.615a.85.85 0 0 0-.167-.363l1.719-2.557.354.567a3.22 3.22 0 0 0-1.291 2.353Zm1.569-1.905 1.186 1.905h-2.229a2.692 2.692 0 0 1 1.043-1.905Zm1.638 4.826a2.692 2.692 0 0 1-2.675-2.396h2.241a.524.524 0 1 0 .434-.821l-.017.001-1.175-1.888a2.691 2.691 0 1 1 1.192 5.104Z" fill="#fff"/></g><defs><clipPath id="a"><path fill="#fff" d="M0 0h24v24H0z"/></clipPath></defs></svg>
